X: 1381
T: An Seanchai Muimhneach
R: jig
M: 6/8
K: Edorian
|:DEE EFD|EFD EFD|~E3 EFG|AAG FED|
DEE EFD|EFD EFG|AFE DFG|AAG FED:|
|:~B3 EFA|BBA Bcd|~B3 EFG|AAG FED|
~B3 EFA|BBA Bcd|AFE DFG|AAG FED:|
|:gfe fed|edc dcB|~A3 DFG|AAG FED|
gfe fed|edc dcB|~A3 DFG|AAG FED:|

